dist/img/logos/sqlite.svg

<svg width="979" height="1095" fill="none" xmlns="http://www.w3.org/2000/svg"><path d="M770.7 48.6h-687C37.7 48.6 0 86.3 0 132.3V890c0 46 37.7 83.7 83.7 83.7h452.5C531 748.5 607.9 311.6 770.7 48.6z" fill="#0F80CC"/><path d="M745.7 73H83.6c-32.7 0-59.3 26.6-59.3 59.3v702.4c149.9-57.5 375-107.2 530.6-104.9 31.3-163.6 123.2-484 190.8-656.8z" fill="url(#paint0_linear)"/><path d="M930.9 23.8c-47.1-42-104-25.1-160.2 24.8-8.3 7.4-16.7 15.6-25 24.4-96.2 102-185.5 291-213.2 435.4 10.8 21.9 19.2 49.9 24.8 71.2 1.4 5.5 2.7 10.6 3.7 15 2.4 10.4 3.8 17.1 3.8 17.1s-.9-3.3-4.4-13.5c-.7-2-1.4-4.1-2.3-6.6-.5-1.2-1-2.5-1.5-3.7-6.3-14.6-23.6-45.4-31.3-58.8-6.1 17.8-11.8 35.6-17.1 53.6 22.1 40.3 35.5 109.5 35.5 109.5s-1.2-4.5-6.7-20.1c-4.9-13.8-29.4-56.8-35.2-66.8-9.9 36.7-13.9 61.4-10.3 67.4 6.9 11.7 13.5 31.8 19.3 54.1 13 50.2 22.1 111.3 22.1 111.3s.3 4.1.8 10.3c-1.8 42.1-.7 85.8 2.5 125.3 4.3 52.3 12.5 97.2 22.8 121.2l7-3.8c-15.2-47.4-21.4-109.4-18.7-181 4.1-109.4 29.3-241.3 75.8-378.8 78.6-207.6 187.6-374.1 287.4-453.7-91 82.1-214.1 348-250.9 446.5-41.3 110.3-70.5 213.7-88.1 312.9 30.4-92.9 128.7-132.9 128.7-132.9s48.2-59.5 104.6-144.4c-33.8 7.7-89.2 20.9-107.7 28.7-27.4 11.5-34.8 15.4-34.8 15.4s88.7-54 164.8-78.5c104.6-164.9 218.6-399.1 103.8-501.5" fill="#003B57"/><defs><linearGradient id="paint0_linear" x1="385.302" y1="88.484" x2="385.302" y2="792.275" gradientUnits="userSpaceOnUse"><stop stop-color="#97D9F6"/><stop offset=".92" stop-color="#0F80CC"/><stop offset="1" stop-color="#0F80CC"/></linearGradient></defs></svg>

<svg width="979" height="1095" viewBox="0 0 979 1095" fill="none" xmlns="http://www.w3.org/2000/svg">
<path d="M770.7 48.6H83.7C37.7 48.6 0 86.3 0 132.3V890C0 936 37.7 973.7 83.7 973.7H536.2C531 748.5 607.9 311.6 770.7 48.6V48.6Z" fill="#0F80CC"/>
<path d="M745.7 73H83.6C50.9 73 24.3 99.6 24.3 132.3V834.7C174.2 777.2 399.3 727.5 554.9 729.8C586.2 566.2 678.1 245.8 745.7 73V73Z" fill="url(#paint0_linear)"/>
<path d="M930.9 23.8C883.8 -18.2 826.9 -1.30001 770.7 48.6C762.4 56 754 64.2 745.7 73C649.5 175 560.2 364 532.5 508.4C543.3 530.3 551.7 558.3 557.3 579.6C558.7 585.1 560 590.2 561 594.6C563.4 605 564.8 611.7 564.8 611.7C564.8 611.7 563.9 608.4 560.4 598.2C559.7 596.2 559 594.1 558.1 591.6C557.6 590.4 557.1 589.1 556.6 587.9C550.3 573.3 533 542.5 525.3 529.1C519.2 546.9 513.5 564.7 508.2 582.7C530.3 623 543.7 692.2 543.7 692.2C543.7 692.2 542.5 687.7 537 672.1C532.1 658.3 507.6 615.3 501.8 605.3C491.9 642 487.9 666.7 491.5 672.7C498.4 684.4 505 704.5 510.8 726.8C523.8 777 532.9 838.1 532.9 838.1C532.9 838.1 533.2 842.2 533.7 848.4C531.9 890.5 533 934.2 536.2 973.7C540.5 1026 548.7 1070.9 559 1094.9L566 1091.1C550.8 1043.7 544.6 981.7 547.3 910.1C551.4 800.7 576.6 668.8 623.1 531.3C701.7 323.7 810.7 157.2 910.5 77.6C819.5 159.7 696.4 425.6 659.6 524.1C618.3 634.4 589.1 737.8 571.5 837C601.9 744.1 700.2 704.1 700.2 704.1C700.2 704.1 748.4 644.6 804.8 559.7C771 567.4 715.6 580.6 697.1 588.4C669.7 599.9 662.3 603.8 662.3 603.8C662.3 603.8 751 549.8 827.1 525.3C931.7 360.4 1045.7 126.2 930.9 23.8" fill="#003B57"/>
<defs>
<linearGradient id="paint0_linear" x1="385.302" y1="88.4845" x2="385.302" y2="792.275" gradientUnits="userSpaceOnUse">
<stop stop-color="#97D9F6"/>
<stop offset="0.92" stop-color="#0F80CC"/>
<stop offset="1" stop-color="#0F80CC"/>
</linearGradient>
</defs>
</svg>
